packages/Snapp/src/CalendarIcon/index.svg

<?xml version="1.0" encoding="UTF-8"?>
<svg width="24px" height="24px" viewBox="0 0 24 24" version="1.1" xmlns="http://www.w3.org/2000/svg" xmlns:xlink="http://www.w3.org/1999/xlink">
    <title>Icons/24/Calendar</title>
    <g id="Icons/24/Calendar" stroke="none" stroke-width="1" fill="none" fill-rule="evenodd">
        <rect id="Container" fill-opacity="0" fill="#D8D8D8" fill-rule="nonzero" x="0" y="0" width="24" height="24"></rect>
        <path d="M17,6 L17,7 C17,7.55228475 16.5522847,8 16,8 C15.4477153,8 15,7.55228475 15,7 L15,6 L9,6 L9,7 C9,7.55228475 8.55228475,8 8,8 C7.44771525,8 7,7.55228475 7,7 L7,6 L5,6 C4.44771525,6 4,6.44771525 4,7 L4,10 L20,10 L20,7 C20,6.44771525 19.5522847,6 19,6 L17,6 Z M17,4 L19,4 C20.6568542,4 22,5.34314575 22,7 L22,19 C22,20.6568542 20.6568542,22 19,22 L5,22 C3.34314575,22 2,20.6568542 2,19 L2,7 C2,5.34314575 3.34314575,4 5,4 L7,4 L7,3 C7,2.44771525 7.44771525,2 8,2 C8.55228475,2 9,2.44771525 9,3 L9,4 L15,4 L15,3 C15,2.44771525 15.4477153,2 16,2 C16.5522847,2 17,2.44771525 17,3 L17,4 Z M4,12 L4,19 C4,19.5522847 4.44771525,20 5,20 L19,20 C19.5522847,20 20,19.5522847 20,19 L20,12 L4,12 Z" id="Shape" fill="#404040" fill-rule="nonzero"></path>
    </g>
</svg>

<svg viewBox="0 0 24 24" xmlns="http://www.w3.org/2000/svg" fill="currentColor" focusable="false">
  <g fill-rule="evenodd">
    <path d="M0 0h24v24H0z"/>
    <path d="M17 6v1a1 1 0 01-2 0V6H9v1a1 1 0 11-2 0V6H5a1 1 0 00-1 1v3h16V7a1 1 0 00-1-1h-2zm0-2h2a3 3 0 013 3v12a3 3 0 01-3 3H5a3 3 0 01-3-3V7a3 3 0 013-3h2V3a1 1 0 112 0v1h6V3a1 1 0 012 0v1zM4 12v7a1 1 0 001 1h14a1 1 0 001-1v-7H4z" fill-rule="nonzero"/>
  </g>
</svg>
